X:1
T:Title
%%score { ( 1 3 ) | ( 2 4 ) }
L:1/8
M:4/4
K:Ab
V:1 treble nm="Grand Piano"
V:3 treble 
V:2 bass 
V:4 bass 
V:1
 z4 z2[Q:1/4=94] [CE][CA] | [Ec][=D_c][E=c][D_c] [E=c]2 [CE][CA] | z [DF]3- [DF]2 z2 | %3
 EFGF E2 B[Fd] | z [Ec]3- [Ec]2 z2 | [Ec][=D_c][E=c][D_c] [E=c]2 [_G_c][G=c] | %6
 [Fe][Fd][Fc][Fd] F2 GF | EFGA B2 [Ed][DG] |[M:3/4] z [CA]- [CA]4 |[M:1/4] EA | %10
[M:4/4] .c2 CC CCBc | z F3- F2 z2 | EFGF E2 Bd | z c3- c2 z2 | %14
 [Ec][=D_c][E=c][D_c] [E=c]2 [_G_c][G=c] | [Fe][Fd][Fc][Fd] F2 GF | EFGA B2 dG | %17
[M:3/4] z [CA]- [CA]4 |] %18
V:2
 z4 z2 [A,,A,][A,,A,] | [A,,A,][A,,A,][A,,A,][A,,A,] [A,,A,]2 [A,,A,][A,,A,] | %2
 [D,A,][D,A,]D,D, D,D,[D,A,D][D,A,D] | [E,G,D][E,A,D][E,B,D][E,A,D] [E,G,D]2 [E,G,D][E,G,] | %4
 [A,,A,][A,,A,]A,,A,, A,,A,,[A,,A,][A,,A,] | [A,,A,][A,,A,][A,,A,][A,,A,] [A,,A,]2 [A,,A,][A,,A,] | %6
 [D,A,][D,A,][D,A,][D,A,] [D,A,D]2 [D,B,D][D,A,D] | %7
 [E,G,D][E,A,D][E,B,D][E,A,C] [E,G,D]2 [D,G,][E,B,] |[M:3/4] [A,,A,][A,,A,] A,,A,, A,,A,, | %9
[M:1/4] z2 |[M:4/4] z2 [A,,A,][A,,A,] [A,,A,][A,,A,] z2 | %11
 z2 [D,A,][D,A,] [D,A,][D,A,][D,B,D][D,A,D] | [E,G,D][E,A,D][E,B,D][E,A,D] [E,G,]2[K:treble] DF | %13
 z[K:bass] E3- E2 z2 | [A,,A,][A,,A,][A,,A,][A,,A,] [A,,A,]2 [A,,A,][A,,A,] | %15
 [D,A,][D,A,][D,A,][D,A,] [D,A,D]2 [D,B,D][D,A,D] | %16
 [E,G,D][E,A,D][E,B,D][E,A,C] [E,G,D]2 [E,G,E][E,B,D] |[M:3/4] [A,,A,][A,,A,] A,,A,, A,,A,, |] %18
V:3
 x8 | x8 | .[EG]2 A,A, A,A,FF | x8 | .[Fd]2 A,A, A,A,[CE][CA] | x8 | x8 | x8 | %8
[M:3/4] .[DB]2 A,A, A,A, |[M:1/4] x2 |[M:4/4] z E3- E2 z2 | .d2 DD DDGF | x8 | %13
 .d2 A,A, A,A,[CE][CA] | x8 | x8 | x8 |[M:3/4] .[DB]2 A,A, A,A, |] %18
V:4
 x8 | x8 | x8 | x8 | x8 | x8 | x8 | x8 |[M:3/4] x6 |[M:1/4] x2 |[M:4/4] x8 | x8 | x6[K:treble] x2 | %13
 .F2[K:bass] A,,A,, A,,A,,[A,,A,][A,,A,] | x8 | x8 | x8 |[M:3/4] x6 |] %18

